X:58
T:Drummond Castle
R:jig
D:Declan Folan & Junior Davey: Skin and Bow
O:Scottish
Z:id:hn-jig-58
M:6/8
K:Ador
ABA ~a3|age ~g3|c2c edc|Bdg dBG|
ABA ~a3|age ~g3|ege deg|1 edB A2E:|2 edB A2B||
|:c2c cec|d2d ded|c2c edc|Bdg dBG|
c2c edc|deg a2g|ege deg|1 edB A2B:|2 edB A2E||
P:variations
|:~A3 ~a3|age ~g3|c2c edc|B/c/dg dBG|
~A3 a3-|age ~g3|e/f/ge deg|1 edB A2G:|2 edB A2B||
|:c2c edc|d2e =fed|c2d edc|B/c/dg dBG|
c2c edc|deg a2g|e/f/ge deg|1 edB A2B:|2 edB A2G||
<end>
<start>
